X:3
T:Mr. Garden's Welcome Home to Troup House
C:Robert Petrie
S:Petrie's Second Collection of Strathspey Reels and Country Dances &c.
Z:Steve Wyrick , 6/5/04
N:Petrie's Second Collection, page 1
L:1/8
M:C
R:Strathspey
K:F
A/B/|c<Ff>F        d>Fc>F|A>f d/c/B/A/ B(GG)A/B/|c<Ff<F    d<Fc<F|B/c/d Tc>B   AFF     :|
f   |(a/g/f)  c<f  A<fc<f|B<fA<f       g(GG)g   |a/g/f c<f A<fc<f|d>f e/f/g/e/ fFF(f/g/)|
     (a/g/f) (c<f) A<fc<f|B>c d/c/B/A/ B(GG)c/B/|A>cf>a    g<af<c|d<(fTc>B)    AFF     |]
